X: 16450
T: Hag At The Spinning Wheel, The
R: jig
M: 6/8
K: Gmajor
|:D|GAG B2G|BcA B2G|GDG cAG|~F3 AFD|
GAG B2G|BcA B2c|ded cAF|G3 G2:|
|:c|BAG AFD|~D3 AFD|~D3 AFD|EFG ABc|
BAG AFD|~D3 AFD|ded cAF|G3 G2:|
|:D|GBd gbg|gdB ecA|dBG cAG|~F3 AFD|
GBd gbg|gdB ecA|fed cAF|G3 G2:|
|:A|(4c/B/A/G/ Afd|Bfd Afd|Bfd AFD|EFG ABc
BAG AFD|~D3 AFD|ded cAF|G3 G2:|

